rospo-light/16x16/places/folder-pictures-symbolic.svg

<svg height="22" width="22" xmlns="http://www.w3.org/2000/svg"><path d="m4.1428571 4.1428571c-1.1428571 0-1.1428571 1.1428572-1.1428571 1.1428572v11.4285717c0 1.142857 1.1428571 1.142857 1.1428571 1.142857h13.7142859s1.142857 0 1.142857-1.142857v-11.4285717c0-1.1428572-1.142857-1.1428572-1.142857-1.1428572zm4 5.2114287 3.7828569 4.2857142 2.434286-2.354286 2.354286 2.354286v1.931429h-11.4285717v-2.857143z" fill="#5c616c" stroke-width="1.142857"/></svg>

<?xml version="1.0" encoding="UTF-8" standalone="no"?>
<svg
   xmlns:dc="http://purl.org/dc/elements/1.1/"
   xmlns:cc="http://creativecommons.org/ns#"
   xmlns:rdf="http://www.w3.org/1999/02/22-rdf-syntax-ns#"
   xmlns:svg="http://www.w3.org/2000/svg"
   xmlns="http://www.w3.org/2000/svg"
   xmlns:sodipodi="http://sodipodi.sourceforge.net/DTD/sodipodi-0.dtd"
   xmlns:inkscape="http://www.inkscape.org/namespaces/inkscape"
   width="22"
   height="22"
   version="1.1"
   id="svg4"
   sodipodi:docname="folder-pictures-symbolic.svg"
   inkscape:version="0.92.1 r">
  <metadata
     id="metadata10">
    <rdf:RDF>
      <cc:Work
         rdf:about="">
        <dc:format>image/svg+xml</dc:format>
        <dc:type
           rdf:resource="http://purl.org/dc/dcmitype/StillImage" />
      </cc:Work>
    </rdf:RDF>
  </metadata>
  <defs
     id="defs8" />
  <sodipodi:namedview
     pagecolor="#ffffff"
     bordercolor="#666666"
     borderopacity="1"
     objecttolerance="10"
     gridtolerance="10"
     guidetolerance="10"
     inkscape:pageopacity="0"
     inkscape:pageshadow="2"
     inkscape:window-width="769"
     inkscape:window-height="480"
     id="namedview6"
     showgrid="false"
     inkscape:zoom="10.727273"
     inkscape:cx="11"
     inkscape:cy="11"
     inkscape:window-x="0"
     inkscape:window-y="0"
     inkscape:window-maximized="0"
     inkscape:current-layer="svg4" />
  <path
     style="fill:#5c616c;stroke-width:1.14285719"
     d="M 4.1428571,4.1428571 C 3,4.1428571 3,5.2857143 3,5.2857143 V 16.714286 c 0,1.142857 1.1428571,1.142857 1.1428571,1.142857 H 17.857143 c 0,0 1.142857,0 1.142857,-1.142857 V 5.2857143 C 19,4.1428571 17.857143,4.1428571 17.857143,4.1428571 Z m 4,5.2114287 L 11.925714,13.64 14.36,11.285714 16.714286,13.64 v 1.931429 H 5.2857143 v -2.857143 z"
     id="path2"
     inkscape:connector-curvature="0" />
</svg>
